svgs/sharp-regular/book-bookmark.svg

<svg xmlns="http://www.w3.org/2000/svg" viewBox="0 0 448 512"><!--! Font Awesome Pro 6.6.0 by @fontawesome - https://fontawesome.com License - https://fontawesome.com/license (Commercial License) Copyright 2024 Fonticons, Inc. --><path d="M0 88C0 39.4 39.4 0 88 0L424 0l24 0 0 24 0 352 0 24-24 0-8 0 0 64 8 0 24 0 0 48-24 0L80 512c-44.2 0-80-35.8-80-80c0-2.7 .1-5.4 .4-8L0 424 0 88zM80 400c-17.7 0-32 14.3-32 32s14.3 32 32 32l288 0 0-64L80 400zM48 358.7c9.8-4.3 20.6-6.7 32-6.7l320 0 0-304-48 0 0 192-80-64-80 64 0-192L88 48C65.9 48 48 65.9 48 88l0 270.7z"/></svg>

<svg xmlns="http://www.w3.org/2000/svg" viewBox="0 0 448 512"><!--! Font Awesome Pro 6.4.0 by @fontawesome - https://fontawesome.com License - https://fontawesome.com/license (Commercial License) Copyright 2023 Fonticons, Inc. --><path d="M0 88C0 39.4 39.4 0 88 0H424h24V24 376v24H424h-8v64h8 24v48H424 80c-44.2 0-80-35.8-80-80c0-2.7 .1-5.4 .4-8H0V88zM80 400c-17.7 0-32 14.3-32 32s14.3 32 32 32H368V400H80zM48 358.7c9.8-4.3 20.6-6.7 32-6.7H400V48H352V240l-80-64-80 64V48H88C65.9 48 48 65.9 48 88V358.7z"/></svg>
